public/front/assets/imgs/brand/tvs.svg

<svg width="148" height="27" viewBox="0 0 148 27" fill="none" xmlns="http://www.w3.org/2000/svg">
<g clip-path="url(#clip0_992_206)">
<path d="M5.72922 21.8458H2.84797L1.72477 25.9985H15.6915L16.7659 21.8458H13.3963L16.7659 8.02006H19.0611L18.8658 10.3162H23.7004L25.6538 3.03691H2.40846L0.503906 10.3162H5.53389L6.55942 7.9712H9.04999L5.72922 21.8458ZM42.1599 3.03691H52.9524L38.5462 25.9985H29.5117L28.242 7.18953H26.3863L27.4607 3.03691H39.4252L38.3508 7.18953H36.2998L36.2509 18.9634L43.1366 7.18953H40.8414L42.1599 3.03691ZM69.8493 9.82767C69.8493 7.53151 70.5818 5.47963 71.5097 3.3789C67.4564 2.64608 63.0612 2.35295 59.0568 3.3789C56.8104 3.96515 54.4663 5.38192 53.1966 7.38495C51.7316 9.63225 52.0734 12.5147 53.8803 14.42C54.8082 15.3482 55.9314 15.9833 57.1034 16.5207C58.0313 16.9604 59.6428 17.6444 59.887 18.7192C60.5707 21.455 56.1755 21.6993 54.4663 21.1619V19.0123H49.8758L48.1178 25.4122C52.2199 26.4381 56.5174 26.7801 60.6683 25.8519C63.1589 25.2656 65.4053 23.9954 67.0657 21.9924C68.4331 20.2825 69.2144 17.107 67.7494 15.2505C66.9192 14.2246 65.9913 13.4429 64.8681 12.8078C63.7938 12.1727 62.6217 11.7818 61.645 11.049C60.473 10.1696 60.473 8.80173 61.7427 8.02006C62.7194 7.38495 64.3309 7.67808 65.4053 7.87349L65.6006 9.77881H69.8493V9.82767Z" fill="#183883"/>
<path d="M132.843 3.47782C130.938 2.745 129.131 2.79386 127.178 3.2824C125.273 3.77094 123.906 4.84574 122.392 6.01824C120.878 7.19075 119.267 8.36325 117.509 9.14492C115.702 9.92659 113.651 10.7571 111.697 9.97544C113.114 10.0243 114.432 9.73117 115.653 8.9495C116.581 8.36325 118.192 7.14189 118.534 6.01824H116.923C118.095 4.74803 119.56 3.77094 121.171 3.18469L120.39 2.25646C122.539 0.79083 124.883 0.106869 127.471 0.00916017C128.692 -0.0396941 129.913 0.106869 131.036 0.448849C132.257 0.790829 133.185 1.37708 134.064 2.25646L132.843 3.47782ZM101.93 8.60752C101.247 8.60752 100.661 8.65638 99.977 8.85179C99.3422 9.04721 98.7562 9.29148 98.1213 9.53575C96.9493 10.0243 95.8261 10.6594 94.7029 11.2457C94.2145 11.4899 93.6285 11.7831 93.0913 11.8808C92.5053 11.9785 91.724 11.9785 91.1868 11.7342C90.6008 11.4411 90.1124 11.1479 89.6241 10.7083C89.1357 10.2686 88.6474 9.82888 88.159 9.4869C87.6218 9.14492 87.0847 8.90065 86.5475 8.55867C86.7917 8.55867 88.0614 8.50981 87.7195 7.97242C87.4265 7.53273 86.7428 7.33731 86.2056 7.2396C84.9848 6.99533 83.7639 6.99533 82.543 6.99533C83.5686 6.11595 84.6918 5.67626 86.0591 5.67626C87.3288 5.67626 88.3544 6.26251 89.4287 6.89762C89.9659 7.2396 90.6008 7.82585 91.1379 8.16783C91.6751 8.50981 92.2611 8.70523 92.8472 8.90065C93.9704 9.29148 95.3866 9.09607 96.5098 8.70523C97.4376 8.36325 98.2678 7.97242 99.2934 7.97242C100.221 7.82585 101.1 8.07012 101.93 8.60752Z" fill="#E62D38"/>
<path d="M92.3596 18.4234C94.3619 18.3257 96.0223 16.3716 97.1455 14.9059C98.3663 13.3426 99.1965 10.9976 101.101 10.1182C103.933 8.848 106.912 9.9228 109.501 11.2907C111.942 12.5121 115.361 12.3167 117.802 11.2419C120.488 10.0694 122.539 8.06633 124.835 6.35643C126.983 4.74424 129.767 3.62059 133.088 4.49997L134.553 2.74121L134.846 5.62362L140.022 10.851L138.997 12.0724H135.676V11.2419C134.699 10.5579 133.674 10.0694 132.453 10.2159C131.183 10.3625 129.816 10.9487 130.011 12.4632C130.158 13.4892 131.623 14.4174 132.355 14.9548C133.381 15.6388 134.455 16.2739 135.529 16.9578C137.727 18.3257 139.827 19.8402 141.878 21.4524C143.783 22.9669 145.736 24.5302 147.201 26.4356L142.708 25.5562C143.538 24.9699 142.562 24.3348 142.025 23.8951C141.341 23.3577 140.657 22.918 139.876 22.4784C138.362 21.6478 136.75 21.2081 135.09 20.8173C131.916 20.0356 127.814 19.5471 125.03 21.5501C124.932 21.599 124.835 21.6967 124.737 21.7455L123.174 20.4265C118.144 22.1364 112.528 21.6967 107.889 19.1563C105.984 20.4753 103.787 20.7685 101.589 21.0127C99.4895 21.257 97.292 21.1104 95.1432 20.915C90.0156 25.1653 83.0322 27.6569 76.4883 25.4096L80.8835 24.286V25.2631C85.6204 25.2631 89.5761 21.941 92.3596 18.4234Z" fill="#E62D38"/>
</g>
<defs>
<clipPath id="clip0_992_206">
<rect width="148" height="27" fill="white"/>
</clipPath>
</defs>
</svg>

<svg xmlns="http://www.w3.org/2000/svg" width="148" height="27" fill="none"><g clip-path="url(#a)"><path fill="#183883" d="M5.73 21.846H2.847l-1.123 4.153h13.967l1.074-4.153h-3.37l3.37-13.826h2.295l-.195 2.296H23.7l1.954-7.28H2.408l-1.904 7.28h5.03l1.025-2.345H9.05zm36.43-18.81h10.792L38.546 26h-9.034l-1.27-18.81h-1.856l1.075-4.152h11.964L38.351 7.19H36.3l-.05 11.773L43.138 7.19H40.84zm27.69 6.792c0-2.296.732-4.348 1.66-6.45-4.054-.732-8.449-1.025-12.453 0-2.247.587-4.59 2.004-5.86 4.007-1.465 2.247-1.124 5.13.683 7.035.928.928 2.051 1.563 3.223 2.1.928.44 2.54 1.124 2.784 2.2.684 2.735-3.712 2.98-5.42 2.442v-2.15h-4.591l-1.758 6.4c4.102 1.026 8.4 1.368 12.55.44 2.49-.586 4.737-1.857 6.398-3.86 1.367-1.71 2.148-4.885.683-6.741a9.85 9.85 0 0 0-2.88-2.443c-1.075-.635-2.247-1.026-3.224-1.759-1.172-.88-1.172-2.247.098-3.029.976-.635 2.588-.342 3.662-.147l.196 1.906h4.248z"/><path fill="#E62D38" d="M132.843 3.478c-1.905-.733-3.712-.684-5.665-.196-1.905.489-3.272 1.564-4.786 2.736s-3.125 2.345-4.883 3.127c-1.807.782-3.858 1.612-5.812.83 1.417.05 2.735-.244 3.956-1.025.928-.587 2.539-1.808 2.881-2.932h-1.611a10.85 10.85 0 0 1 4.248-2.833l-.781-.929c2.149-1.465 4.493-2.15 7.081-2.247a10.8 10.8 0 0 1 3.565.44c1.221.342 2.149.928 3.028 1.807zm-30.913 5.13c-.683 0-1.269.048-1.953.244-.635.195-1.22.44-1.856.684-1.172.488-2.295 1.123-3.418 1.71-.489.244-1.075.537-1.612.635-.586.098-1.367.098-1.904-.147-.586-.293-1.075-.586-1.563-1.026s-.977-.88-1.465-1.221c-.537-.342-1.074-.586-1.612-.928.245 0 1.514-.05 1.172-.587-.292-.44-.976-.635-1.513-.732-1.221-.245-2.442-.245-3.663-.245 1.026-.88 2.149-1.319 3.516-1.319 1.27 0 2.295.587 3.37 1.222.537.342 1.172.928 1.709 1.27s1.123.537 1.71.733c1.122.39 2.539.195 3.662-.196.928-.342 1.758-.733 2.783-.733.928-.146 1.807.098 2.637.636"/><path fill="#E62D38" d="M92.36 18.423c2.002-.097 3.662-2.051 4.785-3.517 1.221-1.563 2.052-3.908 3.956-4.788 2.832-1.27 5.811-.195 8.4 1.173 2.441 1.221 5.86 1.026 8.301-.05 2.686-1.172 4.737-3.175 7.033-4.885 2.148-1.612 4.932-2.735 8.253-1.856l1.465-1.759.293 2.883 5.176 5.227-1.025 1.221h-3.321v-.83c-.977-.684-2.002-1.173-3.223-1.026-1.27.147-2.637.733-2.442 2.247.147 1.026 1.612 1.954 2.344 2.492 1.026.684 2.1 1.319 3.174 2.003 2.198 1.368 4.298 2.882 6.349 4.494 1.905 1.515 3.858 3.078 5.323 4.984l-4.493-.88c.83-.586-.146-1.221-.683-1.66a16.4 16.4 0 0 0-2.149-1.418c-1.514-.83-3.126-1.27-4.786-1.66-3.174-.782-7.276-1.27-10.06.732-.098.049-.195.147-.293.195l-1.563-1.319c-5.03 1.71-10.646 1.27-15.285-1.27-1.905 1.32-4.102 1.613-6.3 1.857-2.1.244-4.297.097-6.446-.098-5.127 4.25-12.11 6.742-18.655 4.495l4.395-1.124v.977c4.737 0 8.693-3.322 11.477-6.84"/></g><defs><clipPath id="a"><path fill="#fff" d="M0 0h148v27H0z"/></clipPath></defs></svg>
